X: 21
T:Merrily Kiss the Quaker (#97)
M:6/8
L:1/8
S:O'Farrell's Pocket Companion 1804-10
K:D
g|fef A2 A|BAB G2 g|fef A2 A|B3 g3|
fef A2 A|BAB G2 g|faf gec|d3 d2:|
|: g|faf afd|ege gec|f/2g/2af afd|f3 a3|
faf afd|ege gec|f2 d gec|d3 d2:||

